packages/ui-icons/svg/Line/quiz-stats-deviation.svg

<svg viewBox="0 0 1920 1920" version="1.1" xmlns="http://www.w3.org/2000/svg">
    <path d="M960,1807.05882 C492.875294,1807.05882 112.941176,1427.12471 112.941176,960 C112.941176,492.875294 492.875294,112.941176 960,112.941176 C1427.12471,112.941176 1807.05882,492.875294 1807.05882,960 C1807.05882,1427.12471 1427.12471,1807.05882 960,1807.05882 M960,0 C430.644706,0 0,430.644706 0,960 C0,1489.35529 430.644706,1920 960,1920 C1489.35529,1920 1920,1489.35529 1920,960 C1920,430.644706 1489.35529,0 960,0 M1129.41176,1047.90212 C1129.41176,1155.08329 1042.22118,1242.38682 934.927059,1242.38682 L872.131765,1242.38682 C764.837647,1242.38682 677.647059,1155.08329 677.647059,1047.90212 L677.647059,872.052706 C677.647059,764.871529 764.837647,677.680941 872.131765,677.680941 L934.927059,677.680941 C1042.22118,677.680941 1129.41176,764.871529 1129.41176,872.052706 L1129.41176,1047.90212 Z M960,567.224471 C951.642353,566.546824 943.510588,564.739765 934.927059,564.739765 L872.131765,564.739765 C702.607059,564.739765 564.705882,702.528 564.705882,872.052706 L564.705882,1047.90212 C564.705882,1217.42682 702.607059,1355.328 872.131765,1355.328 L934.927059,1355.328 C1104.45176,1355.328 1242.35294,1217.42682 1242.35294,1047.90212 L1242.35294,872.052706 C1242.35294,797.963294 1214.90824,730.763294 1171.08706,677.680941 L1411.76471,677.680941 L1411.76471,564.739765 L960,564.739765 L960,567.224471 Z" stroke="none" stroke-width="1" fill-rule="evenodd"/>
</svg>

<svg viewBox="0 0 1920 1920" xmlns="http://www.w3.org/2000/svg">
    <path d="M960 1807.059c-467.125 0-847.059-379.934-847.059-847.059 0-467.125 379.934-847.059 847.059-847.059 467.125 0 847.059 379.934 847.059 847.059 0 467.125-379.934 847.059-847.059 847.059M960 0C430.645 0 0 430.645 0 960s430.645 960 960 960 960-430.645 960-960S1489.355 0 960 0m169.412 1047.902c0 107.181-87.19 194.485-194.485 194.485h-62.795c-107.294 0-194.485-87.304-194.485-194.485v-175.85c0-107.18 87.19-194.371 194.485-194.371h62.795c107.294 0 194.485 87.19 194.485 194.372v175.85ZM960 567.224c-8.358-.677-16.49-2.484-25.073-2.484h-62.795c-169.525 0-307.426 137.788-307.426 307.313v175.85c0 169.524 137.901 307.425 307.426 307.425h62.795c169.525 0 307.426-137.901 307.426-307.426v-175.85c0-74.089-27.445-141.289-71.266-194.371h240.678V564.74H960v2.484Z" fill-rule="evenodd"/>
</svg>
